X:1
T:Dostoino est
T:Dostoino est
T:D. Bortnjankii
C:D. Bortnjankii
%%score [ 1 2 3 4 ]
L:1/8
Q:1/4=92
M:4/4
K:F
V:1 treble nm="Soprano"
V:2 treble nm="Alto"
V:3 treble-8 nm="Tenor"
V:4 bass nm="Bass"
V:1
!p!"^Maestoso" A2 |!<(! A6!<)!!>(! G2!>)! | G4 z4 | F4 F2 G2 | A3 A A2 A2 | G6 A2 | %6
w: Do-|stoi- no|est,|ja- ko vo-|is- tin- nu bla-|zji- ti|
 B4!<(! B2 B2!<)! |!>(! (B6!>)! A2- | A3)!p! G G2 z2 |!pp! F4 F2 F2 | F3 E E2 z2 | F2 F2 G2 G2 | %12
w: tja, Bo- go-|ro- *|* di- tsu,|Pri- sno- bla-|zjen- nu- iu|i Pre- ne- po-|
 A3 A!<(! A2 c2 | d6 e2!<)! |!f!!>(! f6 e2!>)! | (e4 d3) c | c4 z2!p! G2 | B4 A2 G2 | F2 G2 A2 z2 | %19
w: rotsj- nu- iu i|Ma- ter|Bo- ga|na- * sje-|go. Tsjest-|nei shu- iu|He- ru- vim|
 z8 | z8 | z8 | !fermata!z8 |!p! F4 F4 | F3 E E2 z2 |!<(! F2 F2 G2 G2!<)! | A3 A A2 z2 | %27
w: ||||bez is-|tle- ni- ia|Bo- ga Slo- va|rozjd- sju- iu,|
!f! !>!B2 B B B2 B2 |!>(! B3 A A2 z2!>)! |!p! G4 G2 G2 |!<(! (G4 A2 _B2!<)! |!mf! c2 A2 d2 c2 | %32
w: su- stsju- iu Bo- go-|ro- di- tsu|Tja ve- li-|tsja- * *||
 B2 A2 G2 A2 |!>(! B4 A2 G2!>)! |!p! F8 | E2 F2 G4- | G4 F2 E2) |!pp! !fermata!F8 | z4!<(! A4!<)! | %39
w: |||||em.|I|
!>(! !fermata!B8!>)! | z4!p! B4 | !fermata!A8 |] %42
w: fseh,|i|fsia.|
V:2
!p! F2 |!<(! F6!<)!!>(! E2!>)! | E4 z4 | D4 D2 E2 | F3 F F2 F2 | E6 F2 | D4!<(! D2 D2!<)! | %7
w: Do-|stoi- no|est,|ja- ko vo-|is- tin- nu bla-|zji- ti|tja, Bo- go-|
!>(! (G6!>)! F2- | F3)!p! E E2 z2 |!pp! D4 D2 D2 | D3 ^C C2 z2 | D2 D2 E2 E2 | F3 F!<(! F2 G2 | %13
w: ro- *|* di- tsu,|Pri- sno- bla-|zjen- nu- iu|i Pre- ne- po-|rotsj- nu- iu i|
 G6 G2!<)! |!f!!>(! G6 G2!>)! | (G4 F3) E | E4 z2!p! E2 | G4 F2 C2 | A,2 C2 F2 F2 | F4 E2 F2 | %20
w: Ma- ter|Bo- ga|na- * sje-|go. Tsjest-|nei shu- iu|He- ru- vim i|Slav- nei- sju-|
 F2!<(! F4 F2!<)! |!>(! F4 E2 F2!>)! | E2 E2 !fermata!E2 z2 |!p! D4 D4 | D3 ^C C2 z2 | %25
w: iu bez srav-|ne- ni- ia|Se- ra- fim,|bez is-|tle- ni- ia|
!<(! D2 D2 E2 E2!<)! | F3 F F2 z2 |!f! !>!F2 F F F2 F2 |!>(! F3 F F2 z2!>)! |!p! F4 F2 F2 | %30
w: Bo- ga Slo- va|rozjd- sju- iu,|su- stsju- iu Bo- go-|ro- di- tsu|Tja ve- li-|
!<(! (E4 F2 G2!<)! |!mf! A2 F2 B2 A2 | G2 F2 E2 F2 |!>(! E4 F2 E2!>)! |!p! C8- | C8- | C8) | %37
w: tsja- * *|||||||
!pp! !fermata!C8 | z4!<(! F4!<)! |!>(! !fermata!F8!>)! | z4!p! E4 | !fermata!F8 |] %42
w: em.|I|fseh,|i|fsia.|
V:3
!p! c2 |!<(! c6!<)!!>(! c2!>)! | c4 z4 | A4 A2 c2 | c3 c c2 c2 | c6 c2 | B4!<(! d2 d2!<)! | %7
w: Do-|stoi- no|est,|ja- ko vo-|is- tin- nu bla-|zji- ti|tja, Bo- go-|
!>(! c8-!>)! | c3!p! c c2 z2 |!pp! A4 A2 A2 | A3 A A2 z2 | A2 A2 =c2 c2 | c3 c!<(! c2 c2 | %13
w: ro-|* di- tsu,|Pri- sno- bla-|zjen- nu- iu|i Pre- ne- po-|rotsj- nu- iu i|
 =B6 c2!<)! |!f!!>(! d6 c2!>)! | (c4 =B3) c | G4 z4 | z8 | z4 z2!p! A2 | c4 B2 A2 | %20
w: Ma- ter|Bo- ga|na- * sje-|go.||i|Slav- nei- sju-|
 A2!<(! (A2 B2) c2!<)! |!>(! (d2 c2) B2 A2!>)! | G2 G2 !fermata!G2 z2 |!p! A4 A4 | A3 A A2 z2 | %25
w: iu bez _ srav-|ne- * ni- ia|Se- ra- fim,|bez is-|tle- ni- ia|
!<(! A2 A2 =c2 c2!<)! | c3 c c2 z2 |!f! !>!d2 d d d2 d2 |!>(! d3 c c2 z2!>)! |!p! =B4 B2 B2 | %30
w: Bo- ga Slo- va|rozjd- sju- iu,|su- stsju- iu Bo- go-|ro- di- tsu|Tja ve- li-|
!<(! (c8-!<)! |!mf! c8 | E2 F2 _B2 A2 |!>(! G4 F2 B2!>)! |!p! A4 G2 F2 | G2 A2 B4- | B4 A2 G2) | %37
w: tsja-|||||||
!pp! !fermata!A8 | z4!<(! c4!<)! |!>(! !fermata!d8!>)! | z4!p! c4 | !fermata!c8 |] %42
w: em.|I|fseh,|i|fsia.|
V:4
!p! F,2 |!<(! F,6!<)!!>(! C,2!>)! | C,4 z4 | D,4 D,2 C,2 | F,3 F, F,2 F,2 | (C2 B,4) A,2 | %6
w: Do-|stoi- no|est,|ja- ko vo-|is- tin- nu bla-|zji- * ti|
 G,4!<(! G,2 F,2!<)! |!>(! E,6!>)! F,2 | C,3!p! C, C,2 z2 |!pp! D,4 D,2 D,2 | A,,3 A,, A,,2 z2 | %11
w: tja, Bo- go-|ro- *|* di- tsu,|Pri- sno- bla-|zjen- nu- iu|
 D,2 D,2 =C,2 C,2 | F,3 F,!<(! F,2 E,2 | D,6 C,2!<)! |!f!!>(! =B,,6 C,2!>)! | G,4- G,3 C, | %16
w: i Pre- ne- po-|rotsj- nu- iu i|Ma- ter|Bo- ga|na- * sje-|
 C,4 z4 | z8 | z4 z2!p! F,2 | A,4 G,2 F,2 | F,2!<(! (F,2 G,2) A,2!<)! |!>(! (B,2 A,2) G,2 F,2!>)! | %22
w: go.||i|Slav- nei- sju-|iu bez _ srav-|ne- * ni- ia|
 C,2 C,2 !fermata!C,2 z2 |!p! D,4 D,4 | A,,3 A,, A,,2 z2 |!<(! D,2 D,2 =C,2 C,2!<)! | %26
w: Se- ra- fim,|bez is-|tle- ni- ia|Bo- ga Slo- va|
 F,3 F, F,2 z2 |!f! !>!B,2 B,, B,, B,,2 D,2 |!>(! F,3 F, F,2 z2!>)! |!p! D,4 D,2 D,2 | %30
w: rozjd- sju- iu,|su- stsju- iu Bo- go-|ro- di- tsu|Tja ve- li-|
!<(! (C,8-!<)! |!mf! C,8- | C,8- |!>(! C,4 D,2 B,,2!>)! |!p! C,8- | C,8 | F,8) | %37
w: tsja-|||||||
!pp!!pp! !fermata![F,,F,]8 | z4!<(! F,4!<)! |!>(! !fermata!B,8!>)! | z4!p! C,4 | %41
w: em.|I|fseh,|i|
 !fermata![F,,F,]8 |] %42
w: fsia.|

